X: 1
T: Jag har varit i H\"oja
O: Sk\aane
R: shottish
Z: 2005 John Chambers from MS by Matt Fichtenbaum
D: Eva Tj\"ornebo "\AA l\"angtat haver jag"
M: 2/4
L: 1/16
K: G
|: "G"DGBA G2G2 |    DGBA G2G2 | "Am"EAcB     A2AG |1 "D7"F2EF "G"G4   :|2 "D7"F2EF "G"G2Bc ||
|: "G"d2B2 B2Bc |    d2B2 B2Bd |  "C"c2cB "Am"A2AG |1 "D7"F2EF "G"G2Bc :|2 "D7"F2EF "G"G3D  ||
|: "G"G2B2 d2f2 | "C"g2ee e2d2 | "Am"cecA  "G"BdBG |1 "D7"AcAF "G"G3D  :|2 "D7"AcAF "G"G4   |]
